svg/synagogue.svg

<svg xmlns="http://www.w3.org/2000/svg" viewBox="0 0 24 24"><path d="M6 8v13h4v-5c0-1.1.9-2 2-2s2 .9 2 2v5h4V8l-6-5zm7.5 2c0 .8-.7 1.5-1.5 1.5s-1.5-.7-1.5-1.5.7-1.5 1.5-1.5 1.5.7 1.5 1.5M3 5c-1.1 0-2 .9-2 2v1h4V7c0-1.1-.9-2-2-2M1 9h4v12H1zm20-4c-1.1 0-2 .9-2 2v1h4V7c0-1.1-.9-2-2-2m-2 4h4v12h-4z"/></svg>

<svg xmlns="http://www.w3.org/2000/svg" id="mdi-synagogue" viewBox="0 0 24 24"><path d="M6 8V21H10V16C10 14.9 10.9 14 12 14S14 14.9 14 16V21H18V8L12 3L6 8M13.5 10C13.5 10.8 12.8 11.5 12 11.5S10.5 10.8 10.5 10 11.2 8.5 12 8.5 13.5 9.2 13.5 10M3 5C1.9 5 1 5.9 1 7V8H5V7C5 5.9 4.1 5 3 5M1 9H5V21H1V9M21 5C19.9 5 19 5.9 19 7V8H23V7C23 5.9 22.1 5 21 5M19 9H23V21H19V9Z" /></svg>
